X:44
T:Happy Days
Z: id:dc-jig-38
M:6/8
L:1/8
K:F Major
C|FDC FAc|agf dfc|Bff AcA|B3 GEC|!
FAG FAc|agf dfc|Bff AcA|BGE F2:|!
c|faf gec|dff cAc|faf gec|def fga|!
bag afd|cdB AFG|ABc fcA|BGE F2:|!

